X: 26257
T: Meg's
R: waltz
M: 3/4
K: Dmajor
|:d2|e2 ge cA|d4f2|g2 ge cA|a4f2|
g2 bg ec|f2 af dA|e2 ge cA|d4:|
|:d2|c2d2B2|A4F2|G3 F GB|A2F3d|
c2d2B2|A2 dA FD|E2 GE CA,|D4:|

